dist/img/Arrows.svg

<svg width="798" height="52" viewBox="0 0 798 52" fill="none" xmlns="http://www.w3.org/2000/svg">
<path d="M272.5 15.5L281.853 25.6009C282.215 25.9923 282.206 26.5994 281.833 26.9804L272.5 36.5" stroke="#C5E1E6" stroke-width="1.5" stroke-linecap="round"/>
<path d="M267.5 15.5L276.853 25.6009C277.215 25.9923 277.206 26.5994 276.833 26.9804L267.5 36.5" stroke="#C5E1E6" stroke-width="1.5" stroke-linecap="round"/>
<path d="M1 26H267.5" stroke="#C5E1E6" stroke-width="1.5" stroke-linecap="round"/>
<path d="M770.5 15.5L779.853 25.6009C780.215 25.9923 780.206 26.5994 779.833 26.9804L770.5 36.5" stroke="#C5E1E6" stroke-width="1.5" stroke-linecap="round"/>
<path d="M765.5 15.5L774.853 25.6009C775.215 25.9923 775.206 26.5994 774.833 26.9804L765.5 36.5" stroke="#C5E1E6" stroke-width="1.5" stroke-linecap="round"/>
<path d="M496 26H762.5" stroke="#C5E1E6" stroke-width="1.5" stroke-linecap="round"/>
</svg>

<svg width="798" height="52" fill="none" xmlns="http://www.w3.org/2000/svg"><path d="M272.5 15.5l9.353 10.1c.362.392.353 1-.02 1.38L272.5 36.5" stroke="#C5E1E6" stroke-width="1.5" stroke-linecap="round"/><path d="M267.5 15.5l9.353 10.1c.362.392.353 1-.02 1.38L267.5 36.5M1 26h266.5m503-10.5l9.353 10.1c.362.392.353 1-.02 1.38L770.5 36.5" stroke="#C5E1E6" stroke-width="1.5" stroke-linecap="round"/><path d="M765.5 15.5l9.353 10.1c.362.392.353 1-.02 1.38L765.5 36.5M496 26h266.5" stroke="#C5E1E6" stroke-width="1.5" stroke-linecap="round"/></svg>
